X: 684
T: Jingebeng caomao
%%abc-version 2.0
%%abcx-abcm2ps-target-version 5.9.1 (29 Sep 2008)
%%abc-creator hum2abc beta
%%abcx-conversion-date 2013/10/02 07:52:30
%%abc-edited-by Helmut Schaffrath
%%humdrum-veritas 4256589744
%%humdrum-veritas-data 1078447041
%%continueall 1
%%barnumbers 0
L: 1/8
M: 2/4
K: G
d2d2 [I:setbarnb 1]| 
d4 | 
d e g e | 
d e d B | 
A B A B | 
d3B | 
A Bd2 | 
e d B A | 
G ED2 | 
z2G E | 
G4 | 
g ed2 | 
d B d e | 
d B A B | 
A GA2- | 
A ED2 | 
d2d2 | 
d B A A | 
A ED2 |]  



